X:1
T:James Gibb editions
T:Dear Lord, I now respond to Thy sweet call - Barnby
%%score [ ( 1 2 ) ( 3 4 ) ]
L:1/8
Q:1/4=84
M:4/4
K:Eb
V:1 treble nm="Midi_74"
V:2 treble 
V:3 bass nm="Midi_74"
V:4 bass 
V:1
"^St Palladius (10 4. 10 4. D)""^Dear Lord, I now respond to Thy sweet call""^Joseph Barnby\n(1838-96)" B2 | %1
 G3 G G2 F2 | E2 c2 B2 E2 | G2 || A2 F2 G2 | E6 || E2 | A3 A A2 G2 |[M:4/4] F2 c2 B2 c2 | d2 || %10
 e2 c2 d2 | B6 || B2 | c3 c c2 B2 | A2 G2 F2 G2 | A2 || B2 G2 A2 | F6 || F2 | G3 G A2 B2 | %20
 c2 d2 e2 F2 |"^rall." G2 || A2 F2"^1" G2 | E6 || A4 G4 |] %25
V:2
 F2 | E3 E E2 D2 | E2 E2 E2 E2 | E2 || C2 D2 D2 | E6 || E2 | E3 E E2 E2 |[M:4/4] F2 F2 B,2 G2 | %9
 F2 || G2 E2 F2 | D6 || D2 | =E3 E F2 F2 | F2 =E2 F2 C2 | F2 || F2 E2 F2 | D6 || D2 | E3 E E2 _D2 | %20
 C2 F2 E2 E2 | E2 || E2 D2 D2 | E6 || E4 E4 |] %25
V:3
 B,2 | B,3 B, B,2 A,2 | G,2 A,2 G,2 A,2 | B,2 || C2 A,2 B,2 | G,6 || G,2 | A,3 A, A,2 B,2 | %8
[M:4/4] C2 D2 E2 B,2 | B,2 || G,2 =A,2 A,2 | B,6 || B,2 | G,3 G, F,2 _D2 | C2 B,2 A,2 C2 | C2 || %16
 B,2 B,2 C2 | B,6 || B,2 | B,3 B, A,2 G,2 | C2 =B,2 G,2 =A,2 | B,2 || C2 A,2 B,2 | G,6 || C4 B,4 |] %25
V:4
 D,2 | E,3 E, E,2 B,,2 | C,2 A,,2 B,,2 C,2 | B,,2 || B,,2 B,,2 B,,2 | E,6 || E,2 | %7
 C,3 C, C,2 B,,2 |[M:4/4] A,,2 A,2 G,2 E,2 | F,2 || F,2 F,2 F,2 | B,,6 || B,,2 | %13
 B,,3 B,, A,,2 B,,2 | C,2 C,2 F,2 =E,2 | F,2 || D,2 E,2 A,,2 | B,,6 || B,,2 | E,2 _D,2 C,2 E,2 | %20
 A,2 G,2 C,2 C,2 | B,,2 || B,,2 B,,2 B,,2 | E,6 || A,,4 E,4 |] %25

